X: 41138
T: Trip To Windsor, The
R: reel
M: 4/4
K: Gmajor
(3DEF|G3A GABd|e3d e3f|gfed efge|dBAG GEDE|
G3A GABd|e3d e3f|gfed efge|dBAc BG G2||
dedB d2 gd|(3efg dB A3B|GEDB DEGD|(3EFG DB A3B|
G2 BD EDBD|GDBA GBdf|gfed efge|dBAc BG G2||

